assets/dotmemory.svg

<?xml version="1.0" encoding="utf-8"?>
<!-- Generator: Adobe Illustrator 22.1.0, SVG Export Plug-In . SVG Version: 6.00 Build 0)  -->
<svg version="1.1" id="Layer_1" xmlns="http://www.w3.org/2000/svg" xmlns:xlink="http://www.w3.org/1999/xlink" x="0px" y="0px"
	 viewBox="0 0 70 70" style="enable-background:new 0 0 70 70;" xml:space="preserve">
<style type="text/css">
	.st0{fill:#FFFFFF;}
</style>
<g>
	<path d="M13.4,13.4h43.2v43.2H13.4V13.4z"/>
	<path class="st0" d="M17.4,48.5h16.2v2.7H17.4V48.5z"/>
	<path class="st0" d="M17.4,19h6.9c5.6,0,9.5,3.9,9.5,8.9V28c0,5-3.9,9-9.5,9h-6.9V19z M21.3,22.6v10.8h2.9c3.2,0,5.4-2.2,5.4-5.4v0
		c0-3.2-2.2-5.4-5.4-5.4H21.3z"/>
	<path class="st0" d="M34.8,19.1h4.3l4.6,7.5l4.7-7.5h4.2v17.8h-3.9V25.2l-5,7.6h-0.1l-4.9-7.5v11.6h-3.9V19.1z"/>
</g>
</svg>

<svg version="1.1" xmlns="http://www.w3.org/2000/svg" x="0" y="0" width="70" height="70" viewBox="0 0 70 70" xml:space="preserve"><linearGradient id="a" gradientUnits="userSpaceOnUse" x1="20.477" y1="18.782" x2="32.464" y2="68.958"><stop offset="0" stop-color="#7866FF"/><stop offset=".023" stop-color="#7E64FE"/><stop offset=".195" stop-color="#AA56F3"/><stop offset=".349" stop-color="#C94CEC"/><stop offset=".48" stop-color="#DC45E8"/><stop offset=".57" stop-color="#E343E6"/><stop offset=".641" stop-color="#E859BC"/><stop offset=".819" stop-color="#F48F58"/><stop offset=".942" stop-color="#FCB019"/><stop offset="1" stop-color="#FFBD00"/></linearGradient><path fill="url(#a)" d="M8 65.1L0.1 37.6 51.7 45.2 44.3 70z"/><linearGradient id="b" gradientUnits="userSpaceOnUse" x1="49.418" y1="41.451" x2="32.72" y2="7.516"><stop offset="0" stop-color="#7866FF"/><stop offset=".202" stop-color="#965CF8"/><stop offset=".64" stop-color="#E343E6"/><stop offset=".968" stop-color="#FFBD00"/></linearGradient><path fill="url(#b)" d="M23.5 0.1L42.1 5.4 63.2 0 70 46.3 13.4 37.6z"/><linearGradient id="c" gradientUnits="userSpaceOnUse" x1="26.353" y1="53.604" x2="36.21" y2="30.222"><stop offset=".118" stop-color="#E343E6"/><stop offset=".211" stop-color="#C84CEC"/><stop offset=".338" stop-color="#AB55F3"/><stop offset=".472" stop-color="#955DF8"/><stop offset=".618" stop-color="#8562FC"/><stop offset=".781" stop-color="#7B65FE"/><stop offset="1" stop-color="#7866FF"/></linearGradient><path fill="url(#c)" d="M70 46.1L67.3 28.9 25.6 14.4 0.1 19.9 0 37.7 49.6 51.3z"/><g><path fill="#000" d="M13.4 13.4H56.6V56.6H13.4z"/><path fill="#FFF" d="M17.4 48.5H33.599999999999994V51.2H17.4z"/><path d="M17.4,19h6.9c5.6,0,9.5,3.9,9.5,8.9V28c0,5-3.9,9-9.5,9h-6.9V19z M21.3,22.6v10.8h2.9 c3.2,0,5.4-2.2,5.4-5.4V28c0-3.2-2.2-5.4-5.4-5.4H21.3z" fill="#FFF"/><path fill="#FFF" d="M34.8 19.1L39.1 19.1 43.7 26.6 48.4 19.1 52.6 19.1 52.6 36.9 48.7 36.9 48.7 25.2 43.7 32.8 43.6 32.8 38.7 25.3 38.7 36.9 34.8 36.9z"/></g></svg>
